!!!OTL: Graf Friedrich Was sind doch die Strassen so enge!
!!!ARE: Europa, Mitteleuropa, Deutschland (BRD), Hessen - Nassau, Eitelborn
!!!YOR: 2, S. 204
!!    1927 aufgezeichnet
!!!SCT: Q0048E
!!!YEM: Copyright 1995, estate of Helmut Schaffrath.
**kern
*ICvox
*Ivox
*M6/8
*k[]
*C:
{16c
16e
=1
8g
8a
8g
8d
8e
8f
=2
8g
2e}
{16c
16e
=3
8g
8a
8g
8d
8e
8f
=4
8g
2e}
{8c
=5
8.a
16a
8a
8g
8a
8b
=6
8cc
8b
8a
4g}
{16cc
16cc
=7
8g
8a
8g
8f
8e
8f
=8
8a
8g
8f
4e}
==
!!!AGN: Ballade, Hochzeit, Mord / Unfall, Tod
!!!ONB: ESAC (Essen Associative Code) Database: BALLADE
!!!AMT: compound duple
!!!AIN: vox
!!!EED: Helmut Schaffrath
!!!EEV: 1.0
*-
